32x32/apps/dusk.svg

<svg xmlns="http://www.w3.org/2000/svg" width="32" height="32" version="1.1">
 <rect style="opacity:0.2" width="28" height="28" x="2" y="3" rx="2.1" ry="2.1"/>
 <rect style="fill:#d32f2f" width="28" height="28" x="2" y="2" rx="2.1" ry="2.1"/>
 <path style="opacity:0.1" d="M 24.966797,13 C 24.335314,13.257437 23.469472,12.809632 23,13.164062 c 0.62935,0.195931 0.686121,0.817892 0.623047,1.457032 -0.02628,0.532679 0.174115,0.807754 0.07617,1.30664 0.116287,0.75651 0.0024,1.526304 0.111328,2.267578 0.06123,0.861465 0.08283,1.761251 0.308594,2.59375 0.246317,1.365806 0.397711,-0.152897 0.310547,-0.730468 0.139586,-0.839083 -0.146183,-1.838457 0.353515,-2.521485 0.367619,-0.654313 0.956441,-0.851293 1.533203,-0.267578 0.7271,0.462082 1.265992,1.117909 1.189453,2.039063 0.04631,0.895575 0.07022,1.794767 0.166016,2.691406 0.27928,-0.03492 0.08999,-0.801151 0.251953,-1.070312 0.09245,-0.896953 0.265507,-1.805044 0.179688,-2.703126 0.386768,-0.838706 -0.391106,-1.321826 -1.0625,-1.708984 -0.983739,-0.04351 -0.82194,-0.854616 -0.146485,-1.234375 C 27.536484,14.5413 28.250593,13.991986 29,13.396484 c -0.122899,-0.493869 -1.392988,-0.194678 -1.886719,-0.103515 0.371901,0.429165 -0.03944,0.817753 -0.384765,1.183593 -0.677758,0.534623 -1.186825,1.216561 -1.810547,1.851563 -0.605224,-0.178626 0.02941,-1.458447 -0.158203,-2.109375 C 24.488676,13.594909 26.227414,13 24.966797,13 Z m -18.2695314,0.002 c -0.4281997,-0.03704 -0.8098464,0.29986 -1.234375,0.123047 -0.4774296,-0.01089 -2.291319,-0.02438 -1.7167968,0.673828 0.5502726,0.470015 0.2854048,1.284713 0.4414062,1.914063 0.1700884,0.614363 0.038875,1.640593 0.3652344,2.455078 0.021127,1.035249 0.17746,2.058657 0.3105468,3.082031 0.046032,0.807629 0.536204,0.58564 0.5234376,-0.08789 0.3821683,-0.918821 -0.2531461,-2.022341 0.3359374,-2.822265 -0.5586473,-0.87549 0.1195778,-1.880474 0.076172,-2.853516 -0.4659762,-1.012911 0.6844099,-0.450021 1.2109375,-0.589844 0.440012,-0.701595 0.3093075,-0.04904 0.7734375,0.152344 0.4811797,0.823463 1.8777301,0.909337 2.0371094,1.820313 -0.8476786,0.513563 -0.3433137,1.562017 -1.0839844,2.167968 -0.3412055,0.934544 -1.3582951,1.290469 -1.8945312,2.101563 -0.7287291,0.545515 -1.5320736,1.033384 -2.4726563,1.267578 -0.355913,0.126181 -1.9782731,0.04301 -1.125,0.59375 0.6107942,-0.145692 1.1238913,0.09251 1.7304688,-0.07813 0.8955929,-0.192557 1.7299622,-0.659289 2.375,-1.289063 0.846781,-0.508119 1.5143949,-1.254143 2.2109375,-1.9375 0.4391659,-0.821626 1.1133401,-1.55111 1.3066411,-2.464843 0.43209,-0.976365 -0.257237,-1.915657 -1.0136724,-2.517578 C 9.1495091,13.907595 8.1750867,13.471683 7.1445312,13.197266 6.9887538,13.069 6.8399995,13.014299 6.6972656,13.001953 Z m 13.7910154,0 c -0.353932,-0.01789 -0.673505,0.06029 -0.845703,0.283203 -0.633111,-0.368644 -1.180087,0.153242 -1.669922,0.56836 -0.720463,0.584988 -0.821147,1.720343 -0.222656,2.361328 0.750848,0.409485 1.567769,1.014519 2.345703,1.197265 0.36137,-0.02159 0.68854,0.573277 1.230469,0.683594 0.560409,0.429671 -0.458188,1.498968 -0.871094,1.746094 -0.775855,0.565674 -1.598392,0.232921 -2.283203,-0.328125 -0.871022,-0.424843 -0.883673,-1.578757 -0.552734,-2.310547 0.399784,-0.669085 -0.09462,-0.466825 -0.189453,0.09375 -0.457433,0.747481 -0.686254,1.878309 0.01953,2.558594 0.730742,0.533081 1.442441,1.094904 2.408203,1.144531 0.628553,-0.01495 1.176808,-0.149852 1.617187,-0.638672 0.644567,-0.245516 0.471808,-1.125532 1.087891,-1.203125 0.0062,-0.544951 0.928553,-1.376346 0.07617,-1.691406 -0.950181,-0.116288 -1.40442,-1.151436 -2.455078,-1.160156 -0.578779,-0.342356 -2.406144,-0.959444 -1.240235,-1.666016 0.39851,-0.07766 0.772098,-0.226944 1.201172,-0.158203 1.39322,-0.414716 1.09463,1.224168 1.449219,1.814453 0.279065,-0.81119 0.601808,-1.747593 0.451172,-2.634766 -0.277095,-0.333721 -0.966755,-0.630333 -1.556641,-0.660156 z m -8.302734,0.002 c -0.405427,-0.01937 -0.855887,0.05107 -1.167969,0.07422 -0.127309,0.554279 0.476492,1.41767 0.195313,2.162109 0.44024,0.427107 0.02229,0.732309 0.05859,1.330078 0.104183,1.000255 0.141796,1.873455 0.376954,2.804688 0.24703,0.98833 1.20376,1.367827 2.068359,1.591797 L 13.931641,21 c 0.872928,-0.230423 1.844595,-0.381833 2.386718,-1.236328 0.394243,-1.000607 0.456283,-2.067641 0.470703,-3.138672 -0.304552,-0.803501 -0.171278,-1.780344 -0.08789,-2.671875 0.823336,-0.786034 -0.255319,-1.115409 -0.869141,-0.757813 -0.202082,0.140359 -1.339646,-0.493565 -1.017578,0.244141 0.497847,0.70565 0.166178,1.774658 0.554688,2.572266 -0.141682,0.683555 0.01938,1.443317 0.0332,2.154297 -0.252933,0.747106 -0.188731,1.794247 -1.210938,1.839843 -1.348088,0.20959 -1.019074,-1.365435 -1.390625,-2.158203 0.306013,-0.624985 -0.500599,-1.026511 -0.152343,-1.490234 0.22197,-0.938949 -0.454396,-2.183514 0.435546,-2.888672 -0.131352,-0.337989 -0.49301,-0.445474 -0.898437,-0.464844 z"/>
 <path style="fill:#313131" d="M 24.966797 12 C 24.335314 12.257437 23.469472 11.809632 23 12.164062 C 23.62935 12.359993 23.686121 12.981954 23.623047 13.621094 C 23.596767 14.153773 23.797162 14.428848 23.699219 14.927734 C 23.815506 15.684244 23.701669 16.454038 23.810547 17.195312 C 23.871777 18.056777 23.893376 18.956563 24.119141 19.789062 C 24.365458 21.154868 24.516852 19.636165 24.429688 19.058594 C 24.569274 18.219511 24.283505 17.220137 24.783203 16.537109 C 25.150822 15.882796 25.739644 15.685816 26.316406 16.269531 C 27.043506 16.731613 27.582398 17.38744 27.505859 18.308594 C 27.552169 19.204169 27.576082 20.103361 27.671875 21 C 27.951155 20.96508 27.761862 20.198849 27.923828 19.929688 C 28.016278 19.032735 28.189335 18.124644 28.103516 17.226562 C 28.490284 16.387856 27.71241 15.904736 27.041016 15.517578 C 26.057277 15.474068 26.219076 14.662962 26.894531 14.283203 C 27.536484 13.5413 28.250593 12.991986 29 12.396484 C 28.877101 11.902615 27.607012 12.201806 27.113281 12.292969 C 27.485182 12.722134 27.07384 13.110722 26.728516 13.476562 C 26.050758 14.011185 25.541691 14.693123 24.917969 15.328125 C 24.312745 15.149499 24.947382 13.869678 24.759766 13.21875 C 24.488676 12.594909 26.227414 12 24.966797 12 z M 6.6972656 12.001953 C 6.2690659 11.964913 5.8874192 12.301813 5.4628906 12.125 C 4.985461 12.11411 3.1715716 12.100623 3.7460938 12.798828 C 4.2963664 13.268843 4.0314986 14.083541 4.1875 14.712891 C 4.3575884 15.327254 4.2263752 16.353484 4.5527344 17.167969 C 4.5738614 18.203218 4.7301944 19.226626 4.8632812 20.25 C 4.9093133 21.057629 5.3994852 20.83564 5.3867188 20.162109 C 5.7688871 19.243288 5.1335727 18.139768 5.7226562 17.339844 C 5.1640089 16.464354 5.842234 15.45937 5.7988281 14.486328 C 5.3328519 13.473417 6.483238 14.036307 7.0097656 13.896484 C 7.4497776 13.194889 7.3190731 13.84744 7.7832031 14.048828 C 8.2643828 14.872291 9.6609332 14.958165 9.8203125 15.869141 C 8.9726339 16.382704 9.4769988 17.431158 8.7363281 18.037109 C 8.3951226 18.971653 7.378033 19.327578 6.8417969 20.138672 C 6.1130678 20.684187 5.3097233 21.172056 4.3691406 21.40625 C 4.0132276 21.532431 2.3908675 21.449257 3.2441406 22 C 3.8549348 21.854308 4.3680319 22.092515 4.9746094 21.921875 C 5.8702023 21.729318 6.7045716 21.262586 7.3496094 20.632812 C 8.1963904 20.124693 8.8640043 19.378669 9.5605469 18.695312 C 9.9997128 17.873686 10.673887 17.144202 10.867188 16.230469 C 11.299278 15.254104 10.609951 14.314812 9.8535156 13.712891 C 9.1495091 12.907595 8.1750867 12.471683 7.1445312 12.197266 C 6.9887538 12.069 6.8399995 12.014299 6.6972656 12.001953 z M 20.488281 12.001953 C 20.134349 11.984063 19.814776 12.062239 19.642578 12.285156 C 19.009467 11.916512 18.462491 12.438398 17.972656 12.853516 C 17.252193 13.438504 17.151509 14.573859 17.75 15.214844 C 18.500848 15.624329 19.317769 16.229363 20.095703 16.412109 C 20.457073 16.390519 20.784243 16.985386 21.326172 17.095703 C 21.886581 17.525374 20.867984 18.594671 20.455078 18.841797 C 19.679223 19.407471 18.856686 19.074718 18.171875 18.513672 C 17.300853 18.088829 17.288202 16.934915 17.619141 16.203125 C 18.018925 15.53404 17.524523 15.7363 17.429688 16.296875 C 16.972255 17.044356 16.743434 18.175184 17.449219 18.855469 C 18.179961 19.38855 18.89166 19.950373 19.857422 20 C 20.485975 19.98505 21.03423 19.850148 21.474609 19.361328 C 22.119176 19.115812 21.946417 18.235796 22.5625 18.158203 C 22.5687 17.613252 23.491053 16.781857 22.638672 16.466797 C 21.688491 16.350509 21.234252 15.315361 20.183594 15.306641 C 19.604815 14.964285 17.77745 14.347197 18.943359 13.640625 C 19.341869 13.562965 19.715457 13.413681 20.144531 13.482422 C 21.537751 13.067706 21.239161 14.70659 21.59375 15.296875 C 21.872815 14.485685 22.195558 13.549282 22.044922 12.662109 C 21.767827 12.328388 21.078167 12.031776 20.488281 12.001953 z M 12.185547 12.003906 C 11.78012 11.984536 11.32966 12.054975 11.017578 12.078125 C 10.890269 12.632404 11.49407 13.495795 11.212891 14.240234 C 11.653131 14.667341 11.235184 14.972543 11.271484 15.570312 C 11.375667 16.570567 11.41328 17.443767 11.648438 18.375 C 11.895468 19.36333 12.852198 19.742827 13.716797 19.966797 L 13.931641 20 C 14.804569 19.769577 15.776236 19.618167 16.318359 18.763672 C 16.712602 17.763065 16.774642 16.696031 16.789062 15.625 C 16.48451 14.821499 16.617784 13.844656 16.701172 12.953125 C 17.524508 12.167091 16.445853 11.837716 15.832031 12.195312 C 15.629949 12.335671 14.492385 11.701747 14.814453 12.439453 C 15.3123 13.145103 14.980631 14.214111 15.369141 15.011719 C 15.227459 15.695274 15.388524 16.455036 15.402344 17.166016 C 15.149411 17.913122 15.213613 18.960263 14.191406 19.005859 C 12.843318 19.215449 13.172332 17.640424 12.800781 16.847656 C 13.106794 16.222671 12.300182 15.821145 12.648438 15.357422 C 12.870408 14.418473 12.194042 13.173908 13.083984 12.46875 C 12.952632 12.130761 12.590974 12.023276 12.185547 12.003906 z"/>
 <path style="fill:#f4f4f7;opacity:0.1" d="M 4.0996094 2 C 2.9362094 2 2 2.9362094 2 4.0996094 L 2 5.0996094 C 2 3.9362094 2.9362094 3 4.0996094 3 L 27.900391 3 C 29.063791 3 30 3.9362094 30 5.0996094 L 30 4.0996094 C 30 2.9362094 29.063791 2 27.900391 2 L 4.0996094 2 z"/>
</svg>

<svg xmlns="http://www.w3.org/2000/svg" width="32" height="32"><rect style="opacity:.2" width="28" height="28" x="2" y="3" rx="2.1" ry="2.1"/><rect style="fill:#d32f2f" width="28" height="28" x="2" y="2" rx="2.1" ry="2.1"/><path style="opacity:.1" d="M24.967 13c-.632.257-1.498-.19-1.967.164.63.196.686.818.623 1.457-.026.533.174.808.076 1.307.117.756.003 1.526.112 2.267.06.862.082 1.762.308 2.594.246 1.366.398-.153.31-.73.14-.84-.145-1.839.354-2.522.368-.654.957-.851 1.533-.267.728.462 1.266 1.117 1.19 2.039.046.895.07 1.794.166 2.691.28-.035.09-.801.252-1.07.092-.897.265-1.805.18-2.703.386-.84-.392-1.322-1.063-1.71-.984-.043-.822-.854-.146-1.234.641-.742 1.356-1.291 2.105-1.887-.123-.493-1.393-.194-1.887-.103.372.43-.04.818-.384 1.184-.678.534-1.187 1.216-1.811 1.851-.605-.179.03-1.458-.158-2.11-.271-.623 1.467-1.218.207-1.218zm-18.27.002c-.428-.037-.81.3-1.234.123-.478-.01-2.291-.024-1.717.674.55.47.285 1.285.441 1.914.17.614.04 1.64.366 2.455.02 1.035.177 2.059.31 3.082.046.808.536.586.524-.088.382-.919-.253-2.022.336-2.822-.559-.876.12-1.88.076-2.854-.466-1.013.684-.45 1.21-.59.44-.701.31-.049.774.153.481.823 1.878.91 2.037 1.82-.847.514-.343 1.562-1.084 2.168-.34.935-1.358 1.29-1.894 2.102-.729.545-1.532 1.033-2.473 1.267-.356.126-1.978.043-1.125.594.61-.146 1.124.093 1.73-.078a4.926 4.926 0 0 0 2.376-1.29c.846-.507 1.514-1.253 2.21-1.937.44-.821 1.114-1.55 1.307-2.464.432-.977-.257-1.916-1.013-2.518-.704-.805-1.679-1.241-2.71-1.516a.799.799 0 0 0-.447-.195zm13.791 0c-.354-.018-.673.06-.845.283-.634-.368-1.18.153-1.67.569-.72.585-.821 1.72-.223 2.36.75.41 1.568 1.015 2.346 1.198.361-.021.688.573 1.23.684.56.43-.458 1.499-.87 1.746-.777.566-1.6.233-2.284-.328-.871-.425-.884-1.579-.553-2.31.4-.67-.094-.468-.19.093-.457.747-.686 1.878.02 2.559.731.533 1.443 1.094 2.408 1.144.629-.015 1.177-.15 1.618-.639.644-.245.471-1.125 1.087-1.203.007-.545.93-1.376.077-1.691-.95-.116-1.405-1.152-2.455-1.16-.58-.343-2.407-.96-1.24-1.666.398-.078.771-.227 1.2-.159 1.394-.414 1.095 1.225 1.45 1.815.279-.811.602-1.748.45-2.635-.276-.334-.966-.63-1.556-.66zm-8.302.002c-.406-.02-.856.051-1.168.074-.128.554.476 1.418.195 2.162.44.427.022.733.058 1.33.105 1 .142 1.874.377 2.805.247.988 1.204 1.368 2.069 1.592l.215.033c.873-.23 1.844-.382 2.386-1.236.395-1 .457-2.068.471-3.139-.304-.804-.171-1.78-.088-2.672.824-.786-.255-1.115-.869-.758-.202.14-1.34-.493-1.018.244.498.706.167 1.775.555 2.573-.142.683.02 1.443.033 2.154-.253.747-.188 1.794-1.21 1.84-1.349.21-1.02-1.366-1.391-2.158.306-.625-.5-1.027-.153-1.49.222-.94-.454-2.184.436-2.89-.131-.337-.493-.445-.898-.464z"/><path style="fill:#313131" d="M24.967 12c-.632.257-1.498-.19-1.967.164.63.196.686.818.623 1.457-.026.533.174.808.076 1.307.117.756.003 1.526.112 2.267.06.862.082 1.762.308 2.594.246 1.366.398-.153.31-.73.14-.84-.145-1.839.354-2.522.368-.654.957-.851 1.533-.267.728.462 1.266 1.117 1.19 2.039.046.895.07 1.794.166 2.691.28-.035.09-.801.252-1.07.092-.897.265-1.805.18-2.703.386-.84-.392-1.322-1.063-1.71-.984-.043-.822-.854-.146-1.234.641-.742 1.356-1.291 2.105-1.887-.123-.493-1.393-.194-1.887-.103.372.43-.04.818-.384 1.184-.678.534-1.187 1.216-1.811 1.851-.605-.179.03-1.458-.158-2.11-.271-.623 1.467-1.218.207-1.218zm-18.27.002c-.428-.037-.81.3-1.234.123-.478-.01-2.291-.024-1.717.674.55.47.285 1.285.442 1.914.17.614.038 1.64.365 2.455.02 1.035.177 2.059.31 3.082.046.808.536.586.524-.088.382-.919-.253-2.022.336-2.822-.559-.876.12-1.88.076-2.854-.466-1.013.684-.45 1.21-.59.44-.701.31-.049.774.153.481.823 1.878.91 2.037 1.82-.847.514-.343 1.562-1.084 2.168-.34.935-1.358 1.29-1.894 2.102-.729.545-1.532 1.033-2.473 1.267-.356.126-1.978.043-1.125.594.61-.146 1.124.093 1.73-.078a4.926 4.926 0 0 0 2.376-1.29c.846-.507 1.514-1.253 2.21-1.937.44-.821 1.114-1.55 1.307-2.465.432-.976-.257-1.915-1.013-2.517-.704-.805-1.679-1.241-2.71-1.516a.799.799 0 0 0-.447-.195zm13.791 0c-.354-.018-.673.06-.845.283-.634-.368-1.18.153-1.67.569-.72.585-.821 1.72-.223 2.36.75.41 1.568 1.015 2.346 1.198.361-.021.688.573 1.23.684.56.43-.458 1.499-.87 1.746-.777.565-1.6.233-2.284-.328-.871-.425-.884-1.58-.553-2.31.4-.67-.094-.468-.19.093-.457.747-.686 1.878.02 2.558.731.534 1.443 1.095 2.408 1.145.629-.015 1.177-.15 1.618-.639.644-.245.471-1.125 1.087-1.203.007-.545.93-1.376.077-1.691-.95-.116-1.405-1.152-2.455-1.16-.58-.343-2.407-.96-1.24-1.666.398-.078.771-.227 1.2-.159 1.394-.414 1.095 1.225 1.45 1.815.279-.811.602-1.748.45-2.635-.276-.334-.966-.63-1.556-.66zm-8.302.002c-.406-.02-.856.051-1.168.074-.128.554.476 1.418.195 2.162.44.427.022.733.058 1.33.105 1 .142 1.874.377 2.805.247.988 1.204 1.368 2.069 1.592l.215.033c.873-.23 1.844-.382 2.386-1.236.395-1 .457-2.068.471-3.139-.304-.804-.171-1.78-.088-2.672.824-.786-.255-1.115-.869-.758-.202.14-1.34-.493-1.018.244.498.706.167 1.775.555 2.573-.142.683.02 1.443.033 2.154-.253.747-.188 1.794-1.21 1.84-1.349.21-1.02-1.366-1.391-2.158.306-.625-.5-1.027-.153-1.49.222-.94-.454-2.184.436-2.89-.131-.337-.493-.445-.898-.464z"/><path style="fill:#f4f4f7;opacity:.1" d="M4.1 2C2.936 2 2 2.936 2 4.1v1C2 3.936 2.936 3 4.1 3h23.8c1.164 0 2.1.936 2.1 2.1v-1c0-1.164-.936-2.1-2.1-2.1H4.1z"/></svg>
